X: 29277
T: New Old Time, The
R: waltz
M: 3/4
K: Dmajor
fg|"D"a2 f2 d2|A4 Ad|"A"c2 e3b|a4 fg|
"D"a2 g2 f2|"A"e2 c2 A2|"D"d2 f3b|"D"a4 fg|
"D"a2 f2 d2|A4 Ad"A"|c2 e3b|a4 fg|
a2 g2 f2|"A7"e2 c2 A2|"D"d2 f3"A"e|"D"d4 AG||
"D"F2 A2 d2|f2 a2 f2|"A"g2 e3c|A4 cB|
"D"A2 a2 f2|"A7"g2 e2 c2|"D"d2 f3b|a4 AG|
"D"F2 A2 d2|f2 a2 f2|"A"g2 e3c|A4 cB|
"D"A2 a2 f2|"A"g2 e2 c2|"D"d2 f3e|d4||

